images/footer-inst.svg

<svg width="30" height="30" viewBox="0 0 30 30" fill="none" xmlns="http://www.w3.org/2000/svg">
<path d="M15.2953 29.9999C15.1959 29.9999 15.0966 29.9999 14.9966 29.9995C12.645 30.0052 10.4723 29.9455 8.35922 29.8168C6.42197 29.699 4.65363 29.0295 3.24509 27.881C1.88599 26.7727 0.95787 25.2742 0.486603 23.4276C0.0764466 21.8199 0.0547028 20.2418 0.0338745 18.7154C0.0187683 17.6202 0.00320435 16.3224 0 15.0027C0.00320435 13.6775 0.0187683 12.3797 0.0338745 11.2845C0.0547028 9.7583 0.0764466 8.18016 0.486603 6.57226C0.95787 4.72564 1.88599 3.22715 3.24509 2.11891C4.65363 0.970376 6.42197 0.300896 8.35945 0.183021C10.4725 0.0546187 12.6457 -0.00534845 15.0023 0.000373601C17.3545 -0.0046618 19.5266 0.0546187 21.6396 0.183021C23.5769 0.300896 25.3452 0.970376 26.7538 2.11891C28.1131 3.22715 29.041 4.72564 29.5123 6.57226C29.9224 8.17993 29.9442 9.7583 29.965 11.2845C29.9801 12.3797 29.9959 13.6775 29.9989 14.9972V15.0027C29.9959 16.3224 29.9801 17.6202 29.965 18.7154C29.9442 20.2416 29.9226 21.8197 29.5123 23.4276C29.041 25.2742 28.1131 26.7727 26.7538 27.881C25.3452 29.0295 23.5769 29.699 21.6396 29.8168C19.6161 29.94 17.5374 29.9999 15.2953 29.9999ZM14.9966 27.6557C17.3099 27.6612 19.4339 27.6029 21.4973 27.4774C22.9621 27.3884 24.2322 26.913 25.2727 26.0645C26.2344 25.2802 26.8968 24.198 27.2413 22.8481C27.5828 21.5098 27.6025 20.0729 27.6215 18.6833C27.6363 17.5955 27.6519 16.3068 27.6551 14.9999C27.6519 13.6928 27.6363 12.4044 27.6215 11.3165C27.6025 9.92699 27.5828 8.49007 27.2413 7.15156C26.8968 5.80162 26.2344 4.71946 25.2727 3.93509C24.2322 3.08685 22.9621 2.61146 21.4973 2.52242C19.4339 2.39677 17.3099 2.33886 15.0021 2.3439C12.6892 2.3384 10.565 2.39677 8.50159 2.52242C7.03674 2.61146 5.76668 3.08685 4.72618 3.93509C3.76442 4.71946 3.10204 5.80162 2.75757 7.15156C2.41608 8.49007 2.39639 9.92676 2.3774 11.3165C2.36252 12.4053 2.34695 13.6946 2.34375 15.0027C2.34695 16.305 2.36252 17.5945 2.3774 18.6833C2.39639 20.0729 2.41608 21.5098 2.75757 22.8481C3.10204 24.198 3.76442 25.2802 4.72618 26.0645C5.76668 26.9128 7.03674 27.3882 8.50159 27.4772C10.565 27.6029 12.6897 27.6615 14.9966 27.6557ZM14.9407 22.3242C10.9023 22.3242 7.6165 19.0386 7.6165 14.9999C7.6165 10.9613 10.9023 7.6757 14.9407 7.6757C18.9793 7.6757 22.2649 10.9613 22.2649 14.9999C22.2649 19.0386 18.9793 22.3242 14.9407 22.3242ZM14.9407 10.0195C12.1946 10.0195 9.96025 12.2538 9.96025 14.9999C9.96025 17.7461 12.1946 19.9804 14.9407 19.9804C17.6871 19.9804 19.9212 17.7461 19.9212 14.9999C19.9212 12.2538 17.6871 10.0195 14.9407 10.0195ZM23.0853 5.33195C22.1146 5.33195 21.3274 6.11885 21.3274 7.08977C21.3274 8.06068 22.1146 8.84758 23.0853 8.84758C24.0562 8.84758 24.8431 8.06068 24.8431 7.08977C24.8431 6.11885 24.0562 5.33195 23.0853 5.33195Z" fill="white"/>
</svg>

<svg width="30" height="30" fill="none" xmlns="http://www.w3.org/2000/svg"><path d="M15.295 30h-.298c-2.352.005-4.525-.055-6.638-.183-1.937-.118-3.705-.788-5.114-1.936C1.886 26.773.958 25.274.487 23.428c-.41-1.608-.432-3.186-.453-4.713C.019 17.62.004 16.322 0 15.003c.003-1.325.019-2.623.034-3.719.02-1.526.042-3.104.453-4.712.47-1.846 1.399-3.345 2.758-4.453C4.654.97 6.422.3 8.36.183 10.473.055 12.646-.005 15.002 0c2.353-.005 4.525.055 6.638.183 1.937.118 3.705.787 5.114 1.936 1.36 1.108 2.287 2.607 2.758 4.453.41 1.608.432 3.186.453 4.712.015 1.096.03 2.393.034 3.713v.006c-.003 1.32-.019 2.617-.034 3.712-.02 1.527-.042 3.105-.453 4.713-.471 1.846-1.399 3.345-2.758 4.453-1.409 1.148-3.177 1.818-5.114 1.936-2.024.123-4.103.183-6.345.183zm-.298-2.344c2.313.005 4.437-.053 6.5-.179 1.465-.089 2.735-.564 3.776-1.413.961-.784 1.624-1.866 1.968-3.216.342-1.338.361-2.775.38-4.165.015-1.087.03-2.376.034-3.683a331.929 331.929 0 00-.034-3.684c-.018-1.389-.038-2.826-.38-4.164-.344-1.35-1.007-2.433-1.968-3.217-1.04-.848-2.31-1.324-3.776-1.413a102.405 102.405 0 00-6.495-.178c-2.313-.006-4.437.053-6.5.178-1.465.09-2.735.565-3.776 1.413-.962.784-1.624 1.867-1.968 3.217-.342 1.338-.362 2.775-.38 4.164-.015 1.09-.031 2.379-.034 3.687.003 1.302.019 2.591.033 3.68.02 1.39.04 2.827.38 4.165.345 1.35 1.007 2.432 1.97 3.216 1.04.849 2.31 1.324 3.775 1.413 2.063.126 4.188.184 6.495.179zm-.056-5.332c-4.039 0-7.325-3.285-7.325-7.324s3.286-7.324 7.325-7.324c4.038 0 7.324 3.285 7.324 7.324s-3.286 7.324-7.324 7.324zm0-12.305A4.986 4.986 0 009.96 15a4.986 4.986 0 004.98 4.981A4.986 4.986 0 0019.92 15a4.986 4.986 0 00-4.98-4.98zm8.144-4.687a1.758 1.758 0 100 3.516 1.758 1.758 0 000-3.516z" fill="#fff"/></svg>
